images/in.svg

<svg xmlns="http://www.w3.org/2000/svg" width="77.667" height="77.667" viewBox="0 0 77.667 77.667"><path fill="#273AAD" d="M76.836 49.088v28.579h-16.568v-26.666c0-6.699-2.396-11.27-8.395-11.27-4.578 0-7.302 3.081-8.501 6.061-.437 1.066-.549 2.549-.549 4.04v27.834h-16.573s.223-45.162 0-49.841h16.573v7.065l-.109.161h.109v-.161c2.201-3.391 6.133-8.236 14.935-8.236 10.904 0 19.078 7.125 19.078 22.434zm-67.924-45.289c-5.669 0-9.378 3.719-9.378 8.61 0 4.784 3.602 8.616 9.159 8.616h.111c5.779 0 9.374-3.831 9.374-8.616-.11-4.891-3.596-8.61-9.266-8.61zm-8.395 73.868h16.568v-49.842h-16.568v49.842z"/></svg>

<?xml version="1.0" encoding="utf-8"?>
<!-- Generator: Adobe Illustrator 17.0.2, SVG Export Plug-In . SVG Version: 6.00 Build 0)  -->
<!DOCTYPE svg PUBLIC "-//W3C//DTD SVG 1.1//EN" "http://www.w3.org/Graphics/SVG/1.1/DTD/svg11.dtd">
<svg version="1.1" id="Layer_1" xmlns="http://www.w3.org/2000/svg" xmlns:xlink="http://www.w3.org/1999/xlink" x="0px" y="0px"
	 width="77.667px" height="77.667px" viewBox="0 0 77.667 77.667" enable-background="new 0 0 77.667 77.667" xml:space="preserve">
<path id="LinkedIn" fill="#273AAD" d="M76.836,49.088v28.579H60.268V51.001c0-6.699-2.396-11.27-8.395-11.27
	c-4.578,0-7.302,3.081-8.501,6.061c-0.437,1.066-0.549,2.549-0.549,4.04v27.834H26.25c0,0,0.223-45.162,0-49.841h16.573v7.065
	c-0.034,0.053-0.077,0.11-0.109,0.161h0.109V34.89c2.201-3.391,6.133-8.236,14.935-8.236C68.662,26.654,76.836,33.779,76.836,49.088
	z M8.912,3.799c-5.669,0-9.378,3.719-9.378,8.61c0,4.784,3.602,8.616,9.159,8.616h0.111c5.779,0,9.374-3.831,9.374-8.616
	C18.068,7.518,14.582,3.799,8.912,3.799z M0.517,77.667h16.568V27.825H0.517V77.667z"/>
</svg>
